X: 20157
T: Joanie's
R: jig
M: 6/8
K: Dmajor
|:A|DEF EFG|FAd f2 f|gec ABc|dAG FGE|
D2 F E2 G|FAd f^ef|gec ABc|d3 d2:|
|:g|f3 g3|afd def|gec ABc|
[1 dAG FED|f^ef g=e/f/g|afd d2 f|gec AA/B/c|d3 d2:|
[2 dAG FGE|DEF E2 G|FAd f2 a|gec ABc|d3- d2||

